X:1
T:James Gibb editions
T:Ahi che debbo morire - Nanino
T:#
%%score [ 1 2 3 ]
L:1/8
Q:1/4=120
M:2/2
K:F
V:1 treble nm="Soprano" snm="S"
V:2 treble nm="Alto" snm="A"
V:3 treble-8 nm="Tenor" snm="T"
V:1
"^Ahi che debbo morire""^Giovanni Maria Nanino\n(1544-1607)" d8- | d4 c2 B2 | A2 G2 A4 | A2 A2 A4 | %4
w: ~Ahi|* che deb-|bo mo- ri-|re, S'il duol|
w: ~Ahi|* ch'io mi|strug- go~~in fo-|co, E man-|
w: ~Ahi|* ch'io so'in|o- dio~~e~~a schi-|vo, Sol per-|
w: ~Ahi|* ch'il mio|cor si strug-|ge, Per- che|
 B4 c3 B | A4 G4 |[M:2/2] G6 G2 | G2 A4 B2 | c4 B2 d2 | d6 d2 | c2 A2 (Bcdc | dcBA BAGF | %12
w: vo- glio fi-|ni- re|E co-|lei che m'an-|ci- de, del|mio do-|lor si ri\- * * *||
w: co~~a po- co~~a|po- co;|E chi|m'ar- de~~et ac-|cen- de, Di-|let- to|ne se pren- * * *||
w: chè~~a- man- do~~io|vi- vo;|E co-|lei ch'a- mo|tan- to, Si|go- de|del mio pian\- * * *||
w: ogn' hor mi|fug- ge;|E fug-|gen- do de-|si- a Ve-|der la|mor- te mi\- * * *||
 E2 D2 E4) | D4 d4 |[M:2/2] d8- | d4 _e4 | d6 d2 | c4 B2 B2 | c2 d2 _e2 c2 | (d3 c/B/ c2) d2 | %20
w: |de: Dèh~~A-|mor|* per-|chè'l con-|sen- ti, Che|tu sei la ca-|gion\- * * * de'|
w: |de. E|tu,|* O~~in-|i- quo~~A-|mo- re, Non|hai pie- tà del|mio * * * gra-|
w: |to. E|tu,|* i-|ni- quo~Ar-|chie- ro, Per-|che sol con- tra|me * * * ti|
w: |a. E|tu|* non|mi dai|mor- te, Ma|fai ch'io vi- va~~in|duol * * * per|
 c2 B2 A4 | G4 z2 A2 | B2 c2 d2 B2 | c4 d4 | c4 B4 | A8 | G8 |] %27
w: miei tor- men-|ti, Che|tu sei la ca-|gion de'|miei tor-|men-|ti.|
w: ve dol- lo-|re, Non|hai pie- tà del|mio gra-|ve do-|lo-|re.|
w: mos- tri fie-|ro? Per-|chè sol con- tra|me ti|mos- tri|fie-|ro?|
w: peg- gior sor-|te, Ma|fai ch'io vi- va~~in|duol per|peg- gior|sor-|te.|
V:2
 B8- | B4 A2 G2 | ^F2 G2 F4 | ^F4 z2 F2 | ^F2 G2 A2 (G2 | A2) ^F2 G4 |[M:2/2] E6 D2 | E4 ^F2 G2- | %8
w: ~Ahi|* che deb-|bo mo- ri-|re, S'il|duol vo- glio fi\-|* ni- re|E co-|lei che m'an\-|
w: ~Ahi|* ch'io mi|strug- go~~in fo-|co, E|man- co~~a po- co|a po- co;|E chi|m'ar- de~~et ac\-|
w: ~Ahi|* ch'io so'in|o- dio~~e~~a schi-|vo, Sol|per- chè~~a- man- do|io vi- vo;|E co-|lei ch'a- mo|
w: ~Ahi|* ch'il mio|cor si strug-|ge, Per-|che ogn' hor mi|* fug- ge;|E fug-|gen- do de\-|
 G2 ^F2 G2 G2 | F6 D2 | E2 ^F2 (GABA | BAGF GFED | ^C2 D4 C2) | D4 F4 |[M:2/2] F8- | F4 G4 | %16
w: * ci- de, del|mio do-|lor si ri\- * * *|||de: Dèh~~A-|mor|* per-|
w: * cen- de, Di-|let- to|ne se pren\- * * *|||de. E|tu,|* O~~in-|
w: * tan- to, Si|go- de|del mio pian\- * * *|||to. E|tu,|* i-|
w: * si- a Ve-|der la|mor- te mi\- * * *|||a. E|tu|* non|
 F6 B2 | A4 B4 | z2 F2 G2 A2 | B2 G2 A2 D2 | E2 G4 ^F2 | G4 z2 ^F2 | G2 A2 B2 G2 | A4 B4 | %24
w: chè'l con-|sen- ti,|Che tu sei|la ca- gion- de'|miei tor- men-|ti, Che|tu sei la ca-|gion de'|
w: i- quo~A-|mo- re,|Non hai pie-|tà del mio gra-|ve dol- lo-|re, Non|hai pie- tà del|mio gra-|
w: ni- quo~~Ar-|cie- ro,|Per- chè sol|con- tra me ti|mos- tri fie-|ro? Per-|chè sol con- tra|me ti|
w: mi dai|mor- te,|Ma fai ch'io|vi- va~~in duol per|peg- gior sor-|te, Ma|fai ch'io vi- va~~in|duol per|
 A4 G2 (G2 | A2 ^FE F4) | G8 |] %27
w: miei tor- men\-||ti.|
w: ve do- lo\-||re.|
w: mos- tri fie\-||ro?|
w: peg- gior sor\-||te.|
V:3
 B8- | B4 F2 G2 | D2 _E2 D4 | D4 z2 d2 | d2 _e2 c2 c2 | d4 G4 |[M:2/2][K:treble-8] c6 =B2 | %7
w: ~Ahi|* che deb-|bo mo- ri-|re, S'il|duol vo- glio fi-|ni- re|E co-|
w: ~Ahi|* ch'io mi|strug- go~~in fo-|co, E|man- co~~a po- co~~a|po- co;|E chi|
w: ~Ahi|* ch'io so'in|o- dio~~e~~a schi-|vo, Sol|per- chè~~a- man- do~~io|vi- vo;~|E co-|
w: ~Ahi|* ch'il mio|cor si strug-|ge, Per-|che ogn' hor mi|fug- ge;|E fug-|
 c4 d2 B2 | A4 G2 G2 | B6 B2 | c2 d2 (G4- | G8 | A8) | D4 B4 |[M:2/2][K:treble-8] B8- | B4 _E4 | %16
w: lei che m'an-|ci- de, del|mio do-|lor si ri\-|||de: Dèh~~A-|mor|* per-|
w: m'ar- de~~et ac-|cen- de, Di-|let- to|ne se pren\-|||de. E|tu,|* O~~in-|
w: lei ch'a- mo|tan- to, Si|go- de|del mio pian\-|||to. E|tu,|* i-|
w: gen- do de-|si- a Ve-|der la|mor- te mi\-|||a. E|tu|* non|
 B6 B2 | F4 B4 | z8 | z8 | z2 B2 c2 d2 | _e2 c2 d3 c | B2 A2 G4 | F2 f2 (Bcde | f2) (F2 GABc) | %25
w: chè'l con-|sen- ti,|||Che tu sei|la ca- gion de'|miei tor- men-|ti, de' miei * * *|* tor\- * * * *|
w: i- quo~~A-|mo- re,|||Non hai pie-|tà del mio gra-|ve do- lo-|re, gra- ve * * *|* do\- * * * *|
w: ni- quo~~Ar-|cie- ro,|||Per- chè sol|con- tra me ti|mos- tri fie-|ro? ti mos\- * * *|* tri * * * *|
w: mi dai|mor- te,|||Ma fai ch'io|vi- va~~in duol per|peg- gior sor-|te. per peg\- * * *|* gior * * * *|
 d8 | G8 |] %27
w: men-|ti.|
w: lo-|re.|
w: fie-|ro?|
w: sor-|te.|

